icons/ionicons/sharp/copy-sharp.svg

<svg xmlns="http://www.w3.org/2000/svg" viewBox="0 0 512 512" width="20" height="20"><path d="M456 480H136a24 24 0 01-24-24V128a16 16 0 0116-16h328a24 24 0 0124 24v320a24 24 0 01-24 24z"/><path d="M112 80h288V56a24 24 0 00-24-24H60a28 28 0 00-28 28v316a24 24 0 0024 24h24V112a32 32 0 0132-32z"/></svg>

<svg xmlns="http://www.w3.org/2000/svg" width="512" height="512" viewBox="0 0 512 512"><title>ionicons-v5-e</title><path d="M456,480H136a24,24,0,0,1-24-24V128a16,16,0,0,1,16-16H456a24,24,0,0,1,24,24V456A24,24,0,0,1,456,480Z"/><path d="M112,80H400V56a24,24,0,0,0-24-24H60A28,28,0,0,0,32,60V376a24,24,0,0,0,24,24H80V112A32,32,0,0,1,112,80Z"/></svg>
